X: 5123
T: Bridgetown, The
R: reel
M: 4/4
K: Dmajor
|:FA|B2 EF GBAG|F/E/D AF D2 FA|B2 EF GBAG|F/E/D AF E2:|
zA|Beef edBA|FABc d2 cA|Beef edBc|dBAF E2 FA|
Beef edBA|FABc d3 f|e2 dB dBAF|DFAF E2||

